X:94
T:What's that to you
M:6/8
L:1/8
B:Thompson's Compleat Collection of 200 Favourite Country Dances, vol. 1 (London, 1757)
Z:Transcribed and edited by Fynnian Titford-Mock, 2007
Z:abc's:AK/Fiddler's Companion
K:Bb
fdb {a}g2f|ecB {B}A2B|cde fga|bfd "tr"c3|fdb {a}g2f|gcB AGF|GAB cde|
fdc "tr"B3::(3f/e/d/cc "tr"=B2c|c(G/F/E/D/) C2d|(3e/d/c/BB "tr"A2B|
B(F/E/D/C/) B,2d|b2g fdB|ecB AGF|GAB ged|"tr"c3 B3:|

